X:1275
T:Peter Kennedy's Fancy
M:C|
L:1/8
R:Reel
B:O'Neill's 1275
N:Collected by Miss Kennedy
Z:Transcribed by Trish O'Neil
K:G
BA|G2GGG2BA|GABA GETED|EGGA GABd|3efg dB TBAAB|
G2GGG2BA|GABA GETED|EGGA GABd|egdB TB"End"AA2||
d2gd edgd|d2gd BAAB|d2gd edef|agedB TBAAB|
d2gd edgd|d2agd TBAAB|c2cA TBABd|3efg dB TBAAB||
